images/6857790.svg

<?xml version="1.0" encoding="UTF-8"?>
<svg xmlns="http://www.w3.org/2000/svg" xmlns:xlink="http://www.w3.org/1999/xlink" width="300pt" height="300pt" viewBox="0 0 300 300" version="1.1">
<defs>
<g>
<symbol overflow="visible" id="glyph0-0">
<path style="stroke:none;" d="M 0.453125 1.59375 L 0.453125 -6.34375 L 4.953125 -6.34375 L 4.953125 1.59375 Z M 0.953125 1.09375 L 4.453125 1.09375 L 4.453125 -5.84375 L 0.953125 -5.84375 Z M 0.953125 1.09375 "/>
</symbol>
<symbol overflow="visible" id="glyph0-1">
<path style="stroke:none;" d="M 3.546875 -5.953125 C 2.898438 -5.953125 2.382812 -5.710938 2 -5.234375 C 1.625 -4.753906 1.4375 -4.101562 1.4375 -3.28125 C 1.4375 -2.445312 1.625 -1.789062 2 -1.3125 C 2.382812 -0.832031 2.898438 -0.59375 3.546875 -0.59375 C 4.191406 -0.59375 4.703125 -0.832031 5.078125 -1.3125 C 5.453125 -1.789062 5.640625 -2.445312 5.640625 -3.28125 C 5.640625 -4.101562 5.453125 -4.753906 5.078125 -5.234375 C 4.703125 -5.710938 4.191406 -5.953125 3.546875 -5.953125 Z M 3.546875 -6.6875 C 4.460938 -6.6875 5.195312 -6.375 5.75 -5.75 C 6.300781 -5.132812 6.578125 -4.3125 6.578125 -3.28125 C 6.578125 -2.238281 6.300781 -1.410156 5.75 -0.796875 C 5.195312 -0.179688 4.460938 0.125 3.546875 0.125 C 2.617188 0.125 1.878906 -0.179688 1.328125 -0.796875 C 0.773438 -1.410156 0.5 -2.238281 0.5 -3.28125 C 0.5 -4.3125 0.773438 -5.132812 1.328125 -5.75 C 1.878906 -6.375 2.617188 -6.6875 3.546875 -6.6875 Z M 3.546875 -6.6875 "/>
</symbol>
</g>
</defs>
<g id="surface55797">
<rect x="0" y="0" width="300" height="300" style="fill:rgb(100%,100%,100%);fill-opacity:1;stroke:none;"/>
<path style="fill:none;stroke-width:1.2;stroke-linecap:butt;stroke-linejoin:miter;stroke:rgb(0%,0%,0%);stroke-opacity:1;stroke-miterlimit:10;" d="M 264.75 192.371094 L 249.40625 181.242188 "/>
<path style="fill:none;stroke-width:1.2;stroke-linecap:butt;stroke-linejoin:miter;stroke:rgb(0%,0%,0%);stroke-opacity:1;stroke-miterlimit:10;" d="M 248.5 179.203125 L 239.84375 183.066406 "/>
<path style="fill:none;stroke-width:1.2;stroke-linecap:butt;stroke-linejoin:miter;stroke:rgb(100%,0%,0%);stroke-opacity:1;stroke-miterlimit:10;" d="M 239.84375 183.066406 L 231.1875 186.925781 "/>
<path style="fill:none;stroke-width:1.2;stroke-linecap:butt;stroke-linejoin:miter;stroke:rgb(0%,0%,0%);stroke-opacity:1;stroke-miterlimit:10;" d="M 250.316406 183.277344 L 241.660156 187.136719 "/>
<path style="fill:none;stroke-width:1.2;stroke-linecap:butt;stroke-linejoin:miter;stroke:rgb(100%,0%,0%);stroke-opacity:1;stroke-miterlimit:10;" d="M 241.660156 187.136719 L 233.003906 191 "/>
<path style="fill:none;stroke-width:1.2;stroke-linecap:butt;stroke-linejoin:miter;stroke:rgb(0%,0%,0%);stroke-opacity:1;stroke-miterlimit:10;" d="M 249.40625 181.242188 L 250.390625 171.8125 "/>
<path style="fill:none;stroke-width:1.2;stroke-linecap:butt;stroke-linejoin:miter;stroke:rgb(100%,0%,0%);stroke-opacity:1;stroke-miterlimit:10;" d="M 250.390625 171.8125 L 251.375 162.386719 "/>
<path style=" stroke:none;fill-rule:nonzero;fill:rgb(100%,100%,100%);fill-opacity:1;" d="M 224.09375 183.460938 L 232.09375 183.460938 L 232.09375 194.460938 L 224.09375 194.460938 Z M 224.09375 183.460938 "/>
<g style="fill:rgb(100%,0%,0%);fill-opacity:1;">
  <use xlink:href="#glyph0-1" x="224.09375" y="192.124023"/>
</g>
<path style="fill:none;stroke-width:1.2;stroke-linecap:butt;stroke-linejoin:miter;stroke:rgb(100%,0%,0%);stroke-opacity:1;stroke-miterlimit:10;" d="M 251.375 162.386719 L 243.703125 156.820312 "/>
<path style="fill:none;stroke-width:1.2;stroke-linecap:butt;stroke-linejoin:miter;stroke:rgb(0%,0%,0%);stroke-opacity:1;stroke-miterlimit:10;" d="M 243.703125 156.820312 L 236.03125 151.253906 "/>
<path style=" stroke:none;fill-rule:nonzero;fill:rgb(100%,100%,100%);fill-opacity:1;" d="M 247.375 156.886719 L 255.375 156.886719 L 255.375 167.886719 L 247.375 167.886719 Z M 247.375 156.886719 "/>
<g style="fill:rgb(100%,0%,0%);fill-opacity:1;">
  <use xlink:href="#glyph0-1" x="247.375" y="165.549805"/>
</g>
<path style="fill:none;stroke-width:1.2;stroke-linecap:butt;stroke-linejoin:miter;stroke:rgb(0%,0%,0%);stroke-opacity:1;stroke-miterlimit:10;" d="M 236.03125 151.253906 L 218.71875 158.976562 "/>
<path style="fill:none;stroke-width:1.2;stroke-linecap:butt;stroke-linejoin:miter;stroke:rgb(0%,0%,0%);stroke-opacity:1;stroke-miterlimit:10;" d="M 238 132.402344 L 236.03125 151.253906 "/>
<path style="fill:none;stroke-width:1.2;stroke-linecap:butt;stroke-linejoin:miter;stroke:rgb(0%,0%,0%);stroke-opacity:1;stroke-miterlimit:10;" d="M 218.71875 158.976562 L 203.378906 147.84375 "/>
<path style="fill:none;stroke-width:1.2;stroke-linecap:butt;stroke-linejoin:miter;stroke:rgb(0%,0%,0%);stroke-opacity:1;stroke-miterlimit:10;" d="M 203.378906 147.84375 L 205.347656 128.992188 "/>
<path style="fill:none;stroke-width:1.2;stroke-linecap:butt;stroke-linejoin:miter;stroke:rgb(0%,0%,0%);stroke-opacity:1;stroke-miterlimit:10;" d="M 199.136719 145.496094 L 200.714844 130.414062 "/>
<path style="fill:none;stroke-width:1.2;stroke-linecap:butt;stroke-linejoin:miter;stroke:rgb(0%,0%,0%);stroke-opacity:1;stroke-miterlimit:10;" d="M 186.066406 155.566406 L 203.378906 147.84375 "/>
<path style="fill:none;stroke-width:1.2;stroke-linecap:butt;stroke-linejoin:miter;stroke:rgb(0%,0%,0%);stroke-opacity:1;stroke-miterlimit:10;" d="M 205.347656 128.992188 L 190.003906 117.859375 "/>
<path style="fill:none;stroke-width:1.2;stroke-linecap:butt;stroke-linejoin:miter;stroke:rgb(0%,0%,0%);stroke-opacity:1;stroke-miterlimit:10;" d="M 205.347656 128.992188 L 214.003906 125.128906 "/>
<path style="fill:none;stroke-width:1.2;stroke-linecap:butt;stroke-linejoin:miter;stroke:rgb(100%,0%,0%);stroke-opacity:1;stroke-miterlimit:10;" d="M 214.003906 125.128906 L 222.660156 121.269531 "/>
<path style="fill:none;stroke-width:1.2;stroke-linecap:butt;stroke-linejoin:miter;stroke:rgb(0%,0%,0%);stroke-opacity:1;stroke-miterlimit:10;" d="M 190.003906 117.859375 L 172.691406 125.582031 "/>
<path style="fill:none;stroke-width:1.2;stroke-linecap:butt;stroke-linejoin:miter;stroke:rgb(0%,0%,0%);stroke-opacity:1;stroke-miterlimit:10;" d="M 190.089844 122.703125 L 176.238281 128.882812 "/>
<path style="fill:none;stroke-width:1.2;stroke-linecap:butt;stroke-linejoin:miter;stroke:rgb(0%,0%,0%);stroke-opacity:1;stroke-miterlimit:10;" d="M 172.691406 125.582031 L 170.722656 144.433594 "/>
<path style="fill:none;stroke-width:1.2;stroke-linecap:butt;stroke-linejoin:miter;stroke:rgb(100%,0%,0%);stroke-opacity:1;stroke-miterlimit:10;" d="M 157.347656 114.449219 L 165.019531 120.015625 "/>
<path style="fill:none;stroke-width:1.2;stroke-linecap:butt;stroke-linejoin:miter;stroke:rgb(0%,0%,0%);stroke-opacity:1;stroke-miterlimit:10;" d="M 165.019531 120.015625 L 172.691406 125.582031 "/>
<path style="fill:none;stroke-width:1.2;stroke-linecap:butt;stroke-linejoin:miter;stroke:rgb(0%,0%,0%);stroke-opacity:1;stroke-miterlimit:10;" d="M 170.722656 144.433594 L 186.066406 155.566406 "/>
<path style="fill:none;stroke-width:1.2;stroke-linecap:butt;stroke-linejoin:miter;stroke:rgb(0%,0%,0%);stroke-opacity:1;stroke-miterlimit:10;" d="M 174.875 141.9375 L 187.148438 150.84375 "/>
<path style="fill:none;stroke-width:1.2;stroke-linecap:butt;stroke-linejoin:miter;stroke:rgb(0%,0%,0%);stroke-opacity:1;stroke-miterlimit:10;" d="M 170.722656 144.433594 L 153.410156 152.15625 "/>
<path style="fill:none;stroke-width:1.2;stroke-linecap:butt;stroke-linejoin:miter;stroke:rgb(0%,0%,0%);stroke-opacity:1;stroke-miterlimit:10;" d="M 151.191406 151.925781 L 150.207031 161.351562 "/>
<path style="fill:none;stroke-width:1.2;stroke-linecap:butt;stroke-linejoin:miter;stroke:rgb(100%,0%,0%);stroke-opacity:1;stroke-miterlimit:10;" d="M 150.207031 161.351562 L 149.222656 170.777344 "/>
<path style="fill:none;stroke-width:1.2;stroke-linecap:butt;stroke-linejoin:miter;stroke:rgb(0%,0%,0%);stroke-opacity:1;stroke-miterlimit:10;" d="M 155.628906 152.386719 L 154.644531 161.8125 "/>
<path style="fill:none;stroke-width:1.2;stroke-linecap:butt;stroke-linejoin:miter;stroke:rgb(100%,0%,0%);stroke-opacity:1;stroke-miterlimit:10;" d="M 154.644531 161.8125 L 153.660156 171.242188 "/>
<path style="fill:none;stroke-width:1.2;stroke-linecap:butt;stroke-linejoin:miter;stroke:rgb(0%,0%,0%);stroke-opacity:1;stroke-miterlimit:10;" d="M 153.410156 152.15625 L 138.066406 141.023438 "/>
<path style=" stroke:none;fill-rule:nonzero;fill:rgb(100%,100%,100%);fill-opacity:1;" d="M 147.441406 165.507812 L 155.441406 165.507812 L 155.441406 176.507812 L 147.441406 176.507812 Z M 147.441406 165.507812 "/>
<g style="fill:rgb(100%,0%,0%);fill-opacity:1;">
  <use xlink:href="#glyph0-1" x="147.441406" y="174.170898"/>
</g>
<path style="fill:none;stroke-width:1.2;stroke-linecap:butt;stroke-linejoin:miter;stroke:rgb(0%,0%,0%);stroke-opacity:1;stroke-miterlimit:10;" d="M 138.066406 141.023438 L 140.035156 122.171875 "/>
<path style="fill:none;stroke-width:1.2;stroke-linecap:butt;stroke-linejoin:miter;stroke:rgb(0%,0%,0%);stroke-opacity:1;stroke-miterlimit:10;" d="M 142.699219 139.601562 L 144.273438 124.519531 "/>
<path style="fill:none;stroke-width:1.2;stroke-linecap:butt;stroke-linejoin:miter;stroke:rgb(0%,0%,0%);stroke-opacity:1;stroke-miterlimit:10;" d="M 138.066406 141.023438 L 120.753906 148.746094 "/>
<path style="fill:none;stroke-width:1.2;stroke-linecap:butt;stroke-linejoin:miter;stroke:rgb(0%,0%,0%);stroke-opacity:1;stroke-miterlimit:10;" d="M 140.035156 122.171875 L 148.691406 118.308594 "/>
<path style="fill:none;stroke-width:1.2;stroke-linecap:butt;stroke-linejoin:miter;stroke:rgb(100%,0%,0%);stroke-opacity:1;stroke-miterlimit:10;" d="M 148.691406 118.308594 L 157.347656 114.449219 "/>
<path style=" stroke:none;fill-rule:nonzero;fill:rgb(100%,100%,100%);fill-opacity:1;" d="M 153.347656 108.949219 L 161.347656 108.949219 L 161.347656 119.949219 L 153.347656 119.949219 Z M 153.347656 108.949219 "/>
<g style="fill:rgb(100%,0%,0%);fill-opacity:1;">
  <use xlink:href="#glyph0-1" x="153.347656" y="117.612305"/>
</g>
<path style="fill:none;stroke-width:1.2;stroke-linecap:butt;stroke-linejoin:miter;stroke:rgb(0%,0%,0%);stroke-opacity:1;stroke-miterlimit:10;" d="M 120.753906 148.746094 L 105.410156 137.613281 "/>
<path style="fill:none;stroke-width:1.2;stroke-linecap:butt;stroke-linejoin:miter;stroke:rgb(0%,0%,0%);stroke-opacity:1;stroke-miterlimit:10;" d="M 116.601562 151.242188 L 104.328125 142.335938 "/>
<path style="fill:none;stroke-width:1.2;stroke-linecap:butt;stroke-linejoin:miter;stroke:rgb(0%,0%,0%);stroke-opacity:1;stroke-miterlimit:10;" d="M 118.785156 167.597656 L 120.753906 148.746094 "/>
<path style="fill:none;stroke-width:1.2;stroke-linecap:butt;stroke-linejoin:miter;stroke:rgb(0%,0%,0%);stroke-opacity:1;stroke-miterlimit:10;" d="M 105.410156 137.613281 L 88.097656 145.335938 "/>
<path style="fill:none;stroke-width:1.2;stroke-linecap:butt;stroke-linejoin:miter;stroke:rgb(0%,0%,0%);stroke-opacity:1;stroke-miterlimit:10;" d="M 105.410156 137.613281 L 106.394531 128.1875 "/>
<path style="fill:none;stroke-width:1.2;stroke-linecap:butt;stroke-linejoin:miter;stroke:rgb(100%,0%,0%);stroke-opacity:1;stroke-miterlimit:10;" d="M 106.394531 128.1875 L 107.378906 118.757812 "/>
<path style="fill:none;stroke-width:1.2;stroke-linecap:butt;stroke-linejoin:miter;stroke:rgb(0%,0%,0%);stroke-opacity:1;stroke-miterlimit:10;" d="M 88.097656 145.335938 L 86.128906 164.1875 "/>
<path style="fill:none;stroke-width:1.2;stroke-linecap:butt;stroke-linejoin:miter;stroke:rgb(0%,0%,0%);stroke-opacity:1;stroke-miterlimit:10;" d="M 83.464844 146.757812 L 81.890625 161.839844 "/>
<path style="fill:none;stroke-width:1.2;stroke-linecap:butt;stroke-linejoin:miter;stroke:rgb(0%,0%,0%);stroke-opacity:1;stroke-miterlimit:10;" d="M 72.757812 134.203125 L 88.097656 145.335938 "/>
<path style="fill:none;stroke-width:1.2;stroke-linecap:butt;stroke-linejoin:miter;stroke:rgb(0%,0%,0%);stroke-opacity:1;stroke-miterlimit:10;" d="M 86.128906 164.1875 L 101.472656 175.320312 "/>
<path style="fill:none;stroke-width:1.2;stroke-linecap:butt;stroke-linejoin:miter;stroke:rgb(0%,0%,0%);stroke-opacity:1;stroke-miterlimit:10;" d="M 86.128906 164.1875 L 77.472656 168.050781 "/>
<path style="fill:none;stroke-width:1.2;stroke-linecap:butt;stroke-linejoin:miter;stroke:rgb(100%,0%,0%);stroke-opacity:1;stroke-miterlimit:10;" d="M 77.472656 168.050781 L 68.816406 171.910156 "/>
<path style="fill:none;stroke-width:1.2;stroke-linecap:butt;stroke-linejoin:miter;stroke:rgb(0%,0%,0%);stroke-opacity:1;stroke-miterlimit:10;" d="M 101.472656 175.320312 L 118.785156 167.597656 "/>
<path style="fill:none;stroke-width:1.2;stroke-linecap:butt;stroke-linejoin:miter;stroke:rgb(0%,0%,0%);stroke-opacity:1;stroke-miterlimit:10;" d="M 101.386719 170.472656 L 115.238281 164.296875 "/>
<path style="fill:none;stroke-width:1.2;stroke-linecap:butt;stroke-linejoin:miter;stroke:rgb(100%,0%,0%);stroke-opacity:1;stroke-miterlimit:10;" d="M 68.816406 171.910156 L 61.148438 166.34375 "/>
<path style="fill:none;stroke-width:1.2;stroke-linecap:butt;stroke-linejoin:miter;stroke:rgb(0%,0%,0%);stroke-opacity:1;stroke-miterlimit:10;" d="M 61.148438 166.34375 L 53.476562 160.777344 "/>
<path style=" stroke:none;fill-rule:nonzero;fill:rgb(100%,100%,100%);fill-opacity:1;" d="M 64.816406 166.410156 L 72.816406 166.410156 L 72.816406 177.410156 L 64.816406 177.410156 Z M 64.816406 166.410156 "/>
<g style="fill:rgb(100%,0%,0%);fill-opacity:1;">
  <use xlink:href="#glyph0-1" x="64.816406" y="175.073242"/>
</g>
<path style="fill:none;stroke-width:1.2;stroke-linecap:butt;stroke-linejoin:miter;stroke:rgb(0%,0%,0%);stroke-opacity:1;stroke-miterlimit:10;" d="M 53.476562 160.777344 L 55.445312 141.925781 "/>
<path style="fill:none;stroke-width:1.2;stroke-linecap:butt;stroke-linejoin:miter;stroke:rgb(0%,0%,0%);stroke-opacity:1;stroke-miterlimit:10;" d="M 53.476562 160.777344 L 35.25 155.566406 "/>
<path style="fill:none;stroke-width:1.2;stroke-linecap:butt;stroke-linejoin:miter;stroke:rgb(0%,0%,0%);stroke-opacity:1;stroke-miterlimit:10;" d="M 53.476562 160.777344 L 45.175781 177.820312 "/>
<path style="fill:none;stroke-width:1.2;stroke-linecap:butt;stroke-linejoin:miter;stroke:rgb(0%,0%,0%);stroke-opacity:1;stroke-miterlimit:10;" d="M 55.445312 141.925781 L 72.757812 134.203125 "/>
<path style="fill:none;stroke-width:1.2;stroke-linecap:butt;stroke-linejoin:miter;stroke:rgb(0%,0%,0%);stroke-opacity:1;stroke-miterlimit:10;" d="M 58.992188 145.226562 L 72.84375 139.046875 "/>
<path style="fill:none;stroke-width:1.2;stroke-linecap:butt;stroke-linejoin:miter;stroke:rgb(100%,0%,0%);stroke-opacity:1;stroke-miterlimit:10;" d="M 107.378906 118.757812 L 99.710938 113.195312 "/>
<path style="fill:none;stroke-width:1.2;stroke-linecap:butt;stroke-linejoin:miter;stroke:rgb(0%,0%,0%);stroke-opacity:1;stroke-miterlimit:10;" d="M 99.710938 113.195312 L 92.039062 107.628906 "/>
<path style=" stroke:none;fill-rule:nonzero;fill:rgb(100%,100%,100%);fill-opacity:1;" d="M 103.378906 113.257812 L 111.378906 113.257812 L 111.378906 124.257812 L 103.378906 124.257812 Z M 103.378906 113.257812 "/>
<g style="fill:rgb(100%,0%,0%);fill-opacity:1;">
  <use xlink:href="#glyph0-1" x="103.378906" y="121.920898"/>
</g>
<path style="fill:none;stroke-width:1.2;stroke-linecap:butt;stroke-linejoin:miter;stroke:rgb(100%,0%,0%);stroke-opacity:1;stroke-miterlimit:10;" d="M 222.660156 121.269531 L 230.332031 126.835938 "/>
<path style="fill:none;stroke-width:1.2;stroke-linecap:butt;stroke-linejoin:miter;stroke:rgb(0%,0%,0%);stroke-opacity:1;stroke-miterlimit:10;" d="M 230.332031 126.835938 L 238 132.402344 "/>
<path style=" stroke:none;fill-rule:nonzero;fill:rgb(100%,100%,100%);fill-opacity:1;" d="M 218.660156 115.769531 L 226.660156 115.769531 L 226.660156 126.769531 L 218.660156 126.769531 Z M 218.660156 115.769531 "/>
<g style="fill:rgb(100%,0%,0%);fill-opacity:1;">
  <use xlink:href="#glyph0-1" x="218.660156" y="124.432617"/>
</g>
<path style="fill:none;stroke-width:1.2;stroke-linecap:butt;stroke-linejoin:miter;stroke:rgb(0%,0%,0%);stroke-opacity:1;stroke-miterlimit:10;" d="M 238 132.402344 L 246.300781 115.359375 "/>
<path style="fill:none;stroke-width:1.2;stroke-linecap:butt;stroke-linejoin:miter;stroke:rgb(0%,0%,0%);stroke-opacity:1;stroke-miterlimit:10;" d="M 238 132.402344 L 256.226562 137.613281 "/>
</g>
</svg>

<svg xmlns="http://www.w3.org/2000/svg" xmlns:xlink="http://www.w3.org/1999/xlink" width="300pt" height="300pt" viewBox="0 0 300 300"><defs><symbol overflow="visible"><path d="M.453 1.594v-7.938h4.5v7.938zm.5-.5h3.5v-6.938h-3.5zm0 0"/></symbol><symbol overflow="visible" id="a"><path d="M3.547-5.953c-.65 0-1.164.242-1.547.72-.375.48-.563 1.13-.563 1.952 0 .835.188 1.49.563 1.967.383.48.898.72 1.547.72.644 0 1.156-.24 1.53-.72.376-.476.564-1.132.564-1.968 0-.822-.187-1.474-.562-1.954-.375-.477-.887-.72-1.53-.72zm0-.734c.914 0 1.648.312 2.203.937.55.617.828 1.438.828 2.47 0 1.042-.277 1.87-.828 2.483-.555.617-1.29.922-2.203.922-.93 0-1.668-.305-2.22-.922C.774-1.41.5-2.237.5-3.28c0-1.033.273-1.853.828-2.47.55-.625 1.29-.938 2.22-.938zm0 0"/></symbol></defs><g><path fill="#fff" d="M0 0h300v300H0z"/><path d="M264.75 192.37l-15.344-11.128M248.5 179.203l-8.656 3.863" stroke-width="1.2" stroke="#000" stroke-miterlimit="10" fill="none"/><path d="M239.844 183.066l-8.656 3.86" stroke-width="1.2" stroke="#f00" stroke-miterlimit="10" fill="none"/><path d="M250.316 183.277l-8.656 3.86" stroke-width="1.2" stroke="#000" stroke-miterlimit="10" fill="none"/><path d="M241.66 187.137L233.004 191" stroke-width="1.2" stroke="#f00" stroke-miterlimit="10" fill="none"/><path d="M249.406 181.242l.985-9.43" stroke-width="1.2" stroke="#000" stroke-miterlimit="10" fill="none"/><path d="M250.39 171.813l.985-9.426" stroke-width="1.2" stroke="#f00" stroke-miterlimit="10" fill="none"/><path d="M224.094 183.46h8v11h-8zm0 0" fill="#fff"/><use xlink:href="#a" x="224.094" y="192.124" fill="#f00"/><path d="M251.375 162.387l-7.672-5.567" stroke-width="1.2" stroke="#f00" stroke-miterlimit="10" fill="none"/><path d="M243.703 156.82l-7.672-5.566" stroke-width="1.2" stroke="#000" stroke-miterlimit="10" fill="none"/><path d="M247.375 156.887h8v11h-8zm0 0" fill="#fff"/><use xlink:href="#a" x="247.375" y="165.55" fill="#f00"/><path d="M236.03 151.254l-17.31 7.723M238 132.402l-1.97 18.852M218.72 158.977l-15.34-11.133M203.38 147.844l1.968-18.852M199.137 145.496l1.578-15.082M186.066 155.566l17.313-7.722M205.348 128.992l-15.344-11.133M205.348 128.992l8.656-3.863" stroke-width="1.2" stroke="#000" stroke-miterlimit="10" fill="none"/><path d="M214.004 125.13l8.656-3.86" stroke-width="1.2" stroke="#f00" stroke-miterlimit="10" fill="none"/><path d="M190.004 117.86l-17.313 7.722M190.09 122.703l-13.852 6.18M172.69 125.582l-1.967 18.852" stroke-width="1.2" stroke="#000" stroke-miterlimit="10" fill="none"/><path d="M157.348 114.45l7.672 5.566" stroke-width="1.2" stroke="#f00" stroke-miterlimit="10" fill="none"/><path d="M165.02 120.016l7.67 5.566M170.723 144.434l15.343 11.132M174.875 141.938l12.273 8.906M170.723 144.434l-17.313 7.722M151.19 151.926l-.983 9.426" stroke-width="1.2" stroke="#000" stroke-miterlimit="10" fill="none"/><path d="M150.207 161.352l-.984 9.425" stroke-width="1.2" stroke="#f00" stroke-miterlimit="10" fill="none"/><path d="M155.63 152.387l-.985 9.425" stroke-width="1.2" stroke="#000" stroke-miterlimit="10" fill="none"/><path d="M154.645 161.813l-.985 9.43" stroke-width="1.2" stroke="#f00" stroke-miterlimit="10" fill="none"/><path d="M153.41 152.156l-15.344-11.133" stroke-width="1.2" stroke="#000" stroke-miterlimit="10" fill="none"/><path d="M147.44 165.508h8v11h-8zm0 0" fill="#fff"/><use xlink:href="#a" x="147.441" y="174.171" fill="#f00"/><path d="M138.066 141.023l1.97-18.85M142.7 139.602l1.573-15.082M138.066 141.023l-17.312 7.723M140.035 122.172l8.656-3.863" stroke-width="1.2" stroke="#000" stroke-miterlimit="10" fill="none"/><path d="M148.69 118.31l8.658-3.86" stroke-width="1.2" stroke="#f00" stroke-miterlimit="10" fill="none"/><path d="M153.348 108.95h8v11h-8zm0 0" fill="#fff"/><use xlink:href="#a" x="153.348" y="117.612" fill="#f00"/><path d="M120.754 148.746l-15.344-11.133M116.602 151.242l-12.274-8.906M118.785 167.598l1.97-18.852M105.41 137.613l-17.312 7.723M105.41 137.613l.985-9.425" stroke-width="1.2" stroke="#000" stroke-miterlimit="10" fill="none"/><path d="M106.395 128.188l.984-9.43" stroke-width="1.2" stroke="#f00" stroke-miterlimit="10" fill="none"/><path d="M88.098 145.336l-1.97 18.85M83.465 146.758L81.89 161.84M72.758 134.203l15.34 11.133M86.13 164.188l15.343 11.132M86.13 164.188l-8.657 3.863" stroke-width="1.2" stroke="#000" stroke-miterlimit="10" fill="none"/><path d="M77.473 168.05l-8.657 3.86" stroke-width="1.2" stroke="#f00" stroke-miterlimit="10" fill="none"/><path d="M101.473 175.32l17.312-7.722M101.387 170.473l13.85-6.176" stroke-width="1.2" stroke="#000" stroke-miterlimit="10" fill="none"/><path d="M68.816 171.91l-7.668-5.566" stroke-width="1.2" stroke="#f00" stroke-miterlimit="10" fill="none"/><path d="M61.148 166.344l-7.67-5.567" stroke-width="1.2" stroke="#000" stroke-miterlimit="10" fill="none"/><path d="M64.816 166.41h8v11h-8zm0 0" fill="#fff"/><use xlink:href="#a" x="64.816" y="175.073" fill="#f00"/><path d="M53.477 160.777l1.968-18.85M53.477 160.777l-18.227-5.21M53.477 160.777l-8.3 17.043M55.445 141.926l17.313-7.723M58.992 145.227l13.852-6.18" stroke-width="1.2" stroke="#000" stroke-miterlimit="10" fill="none"/><path d="M107.38 118.758l-7.67-5.563" stroke-width="1.2" stroke="#f00" stroke-miterlimit="10" fill="none"/><path d="M99.71 113.195l-7.67-5.566" stroke-width="1.2" stroke="#000" stroke-miterlimit="10" fill="none"/><path d="M103.38 113.258h8v11h-8zm0 0" fill="#fff"/><use xlink:href="#a" x="103.379" y="121.921" fill="#f00"/><path d="M222.66 121.27l7.672 5.566" stroke-width="1.2" stroke="#f00" stroke-miterlimit="10" fill="none"/><path d="M230.332 126.836l7.668 5.566" stroke-width="1.2" stroke="#000" stroke-miterlimit="10" fill="none"/><path d="M218.66 115.77h8v11h-8zm0 0" fill="#fff"/><use xlink:href="#a" x="218.66" y="124.433" fill="#f00"/><path d="M238 132.402l8.3-17.043M238 132.402l18.227 5.21" stroke-width="1.2" stroke="#000" stroke-miterlimit="10" fill="none"/></g></svg>
